X:433
T:Le jolie mois de mai
R:Scottish
C:trad
N:original url: www.wolfram.claranet.de
M:4/4
L:1/8
Q:1/4=150
K:C
CDEFG2c2|A2c2G4 \
|1 AGFEF2D2|GFEDE2C2:|\
|2 AGFEFEFD|C2E2C4|
|:E2E2E3D|CDEFG4|\
c2c2G3A|1 GFEDE2C2 :|2 GFED C4|]
